data/edu-au-vic-wa-nt-hand.svg

<svg width="155.27" height="24.353" viewBox="0 0 155.27 24.353" xmlns="http://www.w3.org/2000/svg"><path transform="translate(0 18.032) scale(.007 -.007)" d="m247 0q-34 0-46 16t-7 46l306 1729q5 33 19 49.5t55 16.5h935q38 0 50-16.5t12-39.5q0-24-11.5-35.5t-50.5-11.5h-895l-124-699h764q38 0 50-15t12-40q0-23-12-37.5t-50-14.5h-782l-148-842h899q39 0 51-10.5t12-32.5q0-24-13-43.5t-50-19.5z"/><path transform="translate(9.94 18.032) scale(.007 -.007)" d="m271-12q-116 0-169.5 111.5t-17.5 311.5q33 179 107.5 311.5t184 205.5 248.5 73h212l145 815q4 25 21.5 34t39.5 7q28-1 44-17t11-45l-308-1745q-4-28-18.5-39t-35.5-11q-18 0-34 8t-24.5 23-4.5 36l69 390q-105-219-226-344t-244-125zm24 106q64 0 130 59t130.5 156.5 125.5 215.5 114 236l24 138h-185q-112 0-199-61t-145-170-84-253q-24-147 1-234t88-87z"/><path transform="translate(17.22 18.032) scale(.007 -.007)" d="m375-18q-147 0-216 97t-40 260l109 613q2 12 11 30.5t56 18.5q38 0 46.5-19t5.5-36l-107-611q-18-103 20-174.5t125-71.5q83 0 171 87t203 259l90 509q2 11 12.5 34t56.5 23q39 0 46.5-18t4.5-35l-155-881q-4-24-13.5-39t-26.5-21.5-44-6.5q-28 0-35.5 14t-1.5 48l35 203q-97-155-178-219t-175-64z"/><path transform="translate(27.174 18.032) scale(.007 -.007)" d="m0-5q-19 0-33 8t-16.5 24.5 10.5 40.5l901 1730q17 33 26.5 48.5t48.5 15.5q32 0 44.5-11t13.5-31l149-1764q3-29-8-45t-44-16q-39 0-49.5 18.5t-12.5 40.5l-71 894h-420l-453-887q-20-40-34-53t-52-13zm594 1060h357l-31 384v287l-120-268z"/><path transform="translate(35.987 18.032) scale(.007 -.007)" d="m394-18q-122 0-175 123.5t-4 405.5l224 1271q4 22 13.5 39t25 26.5 35.5 9.5q28-1 40.5-18.5t7.5-45.5l-226-1283q-12-71-22-145t-6.5-136.5 29-101 82.5-38.5q110 0 236 104.5t254 293 245 442 209 551.5l56 320q5 24 19.5 40.5t48.5 16.5q37 0 48.5-15t6.5-44l-307-1742q-4-29-22.5-42.5t-41.5-13.5q-28 0-46 15.5t-12 49.5l164 928q-134-342-288-566.5t-307.5-334.5-286.5-110z"/><path transform="translate(49.308 18.032) scale(.007 -.007)" d="m392-5q-31 0-46 22t-19 47l-95 1736q-1 31 9.5 46.5t42.5 15.5q42 0 55-17.5t13-37.5l74-1598 769 1590q18 35 35.5 49t55.5 14q29 0 42-17.5t-6-55.5l-854-1728q-15-31-28-48.5t-48-17.5z"/><path transform="translate(56.427 18.032) scale(.007 -.007)" d="m165 0q-36 0-47.5 14.5t-11.5 37.5q0 25 11.5 39.5t47.5 14.5h84l291 1648h-60q-37 0-49.5 15.5t-12.5 37.5q0 23 12 36.5t50 13.5h260q37 0 48-13.5t11-36.5q0-22-11.5-37.5t-47.5-15.5h-80l-290-1648h67q38 0 50-14.5t12-39.5q0-23-12-37.5t-50-14.5z"/><path transform="translate(61.628 18.032) scale(.007 -.007)" d="m680-5q-103 0-202.5 56.5t-173.5 167.5-103 273.5 9 375.5q22 124 58 261t95 267 151 235.5 224 168 315 62.5q133 0 257.5-60t229.5-172q19-17 22-40.5t-13-38.5q-13-17-34.5-19t-47.5 23q-99 104-206 153.5t-211 49.5q-157 0-271-59t-192.5-156.5-130-215-81.5-237-48-220.5q-32-187-12-330t75.5-240.5 132.5-147.5 159-50q148 0 267 77t239 192q47 41 65.5 69t47.5 28q24 0 36.5-9.5t16.5-30.5q2-13-9-40t-62-83q-125-137-271.5-223.5t-331.5-86.5z"/><path transform="translate(74.207 18.032) scale(.007 -.007)" d="m388-5q-34 0-50.5 18.5t-19.5 50.5l-95 1736q-2 31 8.5 46.5t43.5 15.5q42 0 54-17.5t12-37.5l79-1594 766 1588q7 14 26.5 37.5t48.5 23.5q44 0 57.5-18t16.5-38l81-1584 763 1577q17 33 35.5 48t45.5 15q24 0 39-8t17.5-24-9.5-41l-853-1728q-15-34-32.5-50t-40.5-16q-34 0-47 9.5t-15 34.5l-82 1624-774-1599q-10-24-27.5-46.5t-47.5-22.5z"/><path transform="translate(88.214 18.032) scale(.007 -.007)" d="m0-5q-19 0-33 8t-16.5 24.5 10.5 40.5l901 1730q17 33 26.5 48.5t48.5 15.5q32 0 44.5-11t13.5-31l149-1764q3-29-8-45t-44-16q-39 0-49.5 18.5t-12.5 40.5l-71 894h-420l-453-887q-20-40-34-53t-52-13zm594 1060h357l-31 384v287l-120-268z"/><path transform="translate(99.547 18.032) scale(.007 -.007)" d="m248 0q-32 0-45.5 16.5t-9.5 45.5l306 1728q6 34 19.5 50.5t52.5 16.5q34 0 53-15.5t25-34.5l561-1557 275 1541q5 32 20.5 49t51.5 17q34 0 42-18t0-56l-304-1721q-4-22-12.5-42t-45.5-20q-27 0-42.5 12.5t-22.5 30.5l-583 1583-273-1557q-4-25-15.5-47t-52.5-22z"/><path transform="translate(110.77 18.032) scale(.007 -.007)" d="m590 0q-35 0-46.5 16t-6.5 46l294 1692h-508q-38 0-50 14t-12 38q0 23 12 37t50 14h1129q36 0 47.5-14t11.5-37q0-24-11.5-38t-47.5-14h-503l-296-1692q-3-22-14-42t-49-20z"/><path transform="translate(121.84 18.032) scale(.007 -.007)" d="m246 0q-33 0-45 16t-7 46l305 1728q5 33 21.5 50t53.5 17q29 0 39-18.5t4-55.5l-128-728h861l132 750q4 21 18 36.5t48 15.5q36 0 46.5-16.5t4.5-49.5l-306-1738q-3-19-16-36t-48-17q-40 0-49 19t-5 43l155 886h-860l-156-886q-4-22-15.5-42t-52.5-20z"/><path transform="translate(133.04 18.032) scale(.007 -.007)" d="m267-18q-68 0-118.5 52.5t-70 150 4.5 231.5q33 181 115 312t189.5 202 216.5 71h321q25 0 30-22.5t-2-61.5l-152-861q-2-10-13.5-33t-59.5-23q-38 0-44.5 18t-3.5 33l74 419q-67-138-151-248.5t-171-175-165-64.5zm24 107q68 0 156.5 91t182.5 246.5 178 348.5l22 124h-216q-82 0-166.5-59t-150.5-166-93-252q-25-149 7-241t80-92z"/><path transform="translate(140.36 18.032) scale(.007 -.007)" d="m141 0q-38 0-45 17.5t-4 31.5l156 885q4 24 13 38.5t25.5 21.5 42.5 7q29 0 37.5-14t2.5-48l-36-201q96 146 182 213.5t198 67.5q100 0 162-51.5t85.5-133.5 7.5-173l-109-612q-1-12-10-30.5t-56-18.5q-37 0-46.5 18.5t-6.5 36.5l108 611q10 52 2.5 109t-41.5 97.5-105 40.5q-89 0-184-84.5t-217-261.5l-90-512q-2-12-13.5-33.5t-58.5-21.5z"/><path transform="translate(147.99 18.032) scale(.007 -.007)" d="m271-12q-116 0-169.5 111.5t-17.5 311.5q33 179 107.5 311.5t184 205.5 248.5 73h212l145 815q4 25 21.5 34t39.5 7q28-1 44-17t11-45l-308-1745q-4-28-18.5-39t-35.5-11q-18 0-34 8t-24.5 23-4.5 36l69 390q-105-219-226-344t-244-125zm24 106q64 0 130 59t130.5 156.5 125.5 215.5 114 236l24 138h-185q-112 0-199-61t-145-170-84-253q-24-147 1-234t88-87z"/></svg>

<?xml version="1.0" encoding="utf-8" ?>
<svg baseProfile="tiny" height="100%" version="1.2" width="100%" xmlns="http://www.w3.org/2000/svg" xmlns:ev="http://www.w3.org/2001/xml-events" xmlns:xlink="http://www.w3.org/1999/xlink"><defs /><g><path d="M247 0Q213 0 201.0 16.0Q189 32 194 62L500 1791Q505 1824 519.0 1840.5Q533 1857 574 1857H1509Q1547 1857 1559.0 1840.5Q1571 1824 1571 1801Q1571 1777 1559.5 1765.5Q1548 1754 1509 1754H614L490 1055H1254Q1292 1055 1304.0 1040.0Q1316 1025 1316 1000Q1316 977 1304.0 962.5Q1292 948 1254 948H472L324 106H1223Q1262 106 1274.0 95.5Q1286 85 1286 63Q1286 39 1273.0 19.5Q1260 0 1223 0Z" transform="translate(0.0, 72) scale(0.036, -0.036)" /><path d="M271 -12Q155 -12 101.5 99.5Q48 211 84 411Q117 590 191.5 722.5Q266 855 375.5 928.0Q485 1001 624 1001H836L981 1816Q985 1841 1002.5 1850.0Q1020 1859 1042 1857Q1070 1856 1086.0 1840.0Q1102 1824 1097 1795L789 50Q785 22 770.5 11.0Q756 0 735 0Q717 0 701.0 8.0Q685 16 676.5 31.0Q668 46 672 67L741 457Q636 238 515.0 113.0Q394 -12 271 -12ZM295 94Q359 94 425.0 153.0Q491 212 555.5 309.5Q620 407 681.0 525.0Q742 643 795 761L819 899H634Q522 899 435.0 838.0Q348 777 290.0 668.0Q232 559 206 415Q182 268 207.0 181.0Q232 94 295 94Z" transform="translate(51.12, 72) scale(0.036, -0.036)" /><path d="M375 -18Q228 -18 159.0 79.0Q90 176 119 339L228 952Q230 964 239.0 982.5Q248 1001 295 1001Q333 1001 341.5 982.0Q350 963 347 946L240 335Q222 232 260.0 160.5Q298 89 385 89Q468 89 556.0 176.0Q644 263 759 435L849 944Q851 955 861.5 978.0Q872 1001 918 1001Q957 1001 964.5 983.0Q972 965 969 948L814 67Q810 43 800.5 28.0Q791 13 774.0 6.5Q757 0 730 0Q702 0 694.5 14.0Q687 28 693 62L728 265Q631 110 550.0 46.0Q469 -18 375 -18Z" transform="translate(88.56, 72) scale(0.036, -0.036)" /><path d="M0 -5Q-19 -5 -33.0 3.0Q-47 11 -49.5 27.5Q-52 44 -39 68L862 1798Q879 1831 888.5 1846.5Q898 1862 937 1862Q969 1862 981.5 1851.0Q994 1840 995 1820L1144 56Q1147 27 1136.0 11.0Q1125 -5 1092 -5Q1053 -5 1042.5 13.5Q1032 32 1030 54L959 948H539L86 61Q66 21 52.0 8.0Q38 -5 0 -5ZM594 1055H951L920 1439V1726L800 1458Z" transform="translate(139.752, 72) scale(0.036, -0.036)" /><path d="M394 -18Q272 -18 219.0 105.5Q166 229 215 511L439 1782Q443 1804 452.5 1821.0Q462 1838 477.5 1847.5Q493 1857 513 1857Q541 1856 553.5 1838.5Q566 1821 561 1793L335 510Q323 439 313.0 365.0Q303 291 306.5 228.5Q310 166 335.5 127.5Q361 89 418 89Q528 89 654.0 193.5Q780 298 908.0 486.5Q1036 675 1153.0 928.5Q1270 1182 1362 1480L1418 1800Q1423 1824 1437.5 1840.5Q1452 1857 1486 1857Q1523 1857 1534.5 1842.0Q1546 1827 1541 1798L1234 56Q1230 27 1211.5 13.5Q1193 0 1170 0Q1142 0 1124.0 15.5Q1106 31 1112 65L1276 993Q1142 651 988.0 426.5Q834 202 680.5 92.0Q527 -18 394 -18Z" transform="translate(185.07600000000002, 72) scale(0.036, -0.036)" /><path d="M392 -5Q361 -5 346.0 17.0Q331 39 327 64L232 1800Q231 1831 241.5 1846.5Q252 1862 284 1862Q326 1862 339.0 1844.5Q352 1827 352 1807L426 209L1195 1799Q1213 1834 1230.5 1848.0Q1248 1862 1286 1862Q1315 1862 1328.0 1844.5Q1341 1827 1322 1789L468 61Q453 30 440.0 12.5Q427 -5 392 -5Z" transform="translate(253.58400000000003, 72) scale(0.036, -0.036)" /><path d="M165 0Q129 0 117.5 14.5Q106 29 106 52Q106 77 117.5 91.5Q129 106 165 106H249L540 1754H480Q443 1754 430.5 1769.5Q418 1785 418 1807Q418 1830 430.0 1843.5Q442 1857 480 1857H740Q777 1857 788.0 1843.5Q799 1830 799 1807Q799 1785 787.5 1769.5Q776 1754 740 1754H660L370 106H437Q475 106 487.0 91.5Q499 77 499 52Q499 29 487.0 14.5Q475 0 437 0Z" transform="translate(290.196, 72) scale(0.036, -0.036)" /><path d="M680 -5Q577 -5 477.5 51.5Q378 108 304.0 219.0Q230 330 201.0 492.5Q172 655 210 868Q232 992 268.0 1129.0Q304 1266 363.0 1396.0Q422 1526 514.0 1631.5Q606 1737 738.0 1799.5Q870 1862 1053 1862Q1186 1862 1310.5 1802.0Q1435 1742 1540 1630Q1559 1613 1562.0 1589.5Q1565 1566 1549 1551Q1536 1534 1514.5 1532.0Q1493 1530 1467 1555Q1368 1659 1261.0 1708.5Q1154 1758 1050 1758Q893 1758 779.0 1699.0Q665 1640 586.5 1542.5Q508 1445 456.5 1327.5Q405 1210 375.0 1090.5Q345 971 327 870Q295 683 315.0 540.0Q335 397 390.5 299.5Q446 202 523.0 152.0Q600 102 682 102Q830 102 949.0 179.0Q1068 256 1188 371Q1235 412 1253.5 440.0Q1272 468 1301 468Q1325 468 1337.5 458.5Q1350 449 1354 428Q1356 415 1345.0 388.0Q1334 361 1283 305Q1158 168 1011.5 81.5Q865 -5 680 -5Z" transform="translate(316.944, 72) scale(0.036, -0.036)" /><path d="M388 -5Q354 -5 337.5 13.5Q321 32 318 64L223 1800Q221 1831 231.5 1846.5Q242 1862 275 1862Q317 1862 329.0 1844.5Q341 1827 341 1807L420 213L1186 1801Q1193 1815 1212.5 1838.5Q1232 1862 1261 1862Q1305 1862 1318.5 1844.0Q1332 1826 1335 1806L1416 222L2179 1799Q2196 1832 2214.5 1847.0Q2233 1862 2260 1862Q2284 1862 2299.0 1854.0Q2314 1846 2316.5 1830.0Q2319 1814 2307 1789L1454 61Q1439 27 1421.5 11.0Q1404 -5 1381 -5Q1347 -5 1334.0 4.5Q1321 14 1319 39L1237 1663L463 64Q453 40 435.5 17.5Q418 -5 388 -5Z" transform="translate(381.636, 72) scale(0.036, -0.036)" /><path d="M0 -5Q-19 -5 -33.0 3.0Q-47 11 -49.5 27.5Q-52 44 -39 68L862 1798Q879 1831 888.5 1846.5Q898 1862 937 1862Q969 1862 981.5 1851.0Q994 1840 995 1820L1144 56Q1147 27 1136.0 11.0Q1125 -5 1092 -5Q1053 -5 1042.5 13.5Q1032 32 1030 54L959 948H539L86 61Q66 21 52.0 8.0Q38 -5 0 -5ZM594 1055H951L920 1439V1726L800 1458Z" transform="translate(453.672, 72) scale(0.036, -0.036)" /><path d="M248 0Q216 0 202.5 16.5Q189 33 193 62L499 1790Q505 1824 518.5 1840.5Q532 1857 571 1857Q605 1857 624.0 1841.5Q643 1826 649 1807L1210 250L1485 1791Q1490 1823 1505.5 1840.0Q1521 1857 1557 1857Q1591 1857 1599.0 1839.0Q1607 1821 1599 1783L1295 62Q1291 40 1282.5 20.0Q1274 0 1237 0Q1210 0 1194.5 12.5Q1179 25 1172 43L589 1626L316 69Q312 44 300.5 22.0Q289 0 248 0Z" transform="translate(511.956, 72) scale(0.036, -0.036)" /><path d="M590 0Q555 0 543.5 16.0Q532 32 537 62L831 1754H323Q285 1754 273.0 1768.0Q261 1782 261 1806Q261 1829 273.0 1843.0Q285 1857 323 1857H1452Q1488 1857 1499.5 1843.0Q1511 1829 1511 1806Q1511 1782 1499.5 1768.0Q1488 1754 1452 1754H949L653 62Q650 40 639.0 20.0Q628 0 590 0Z" transform="translate(569.664, 72) scale(0.036, -0.036)" /><path d="M246 0Q213 0 201.0 16.0Q189 32 194 62L499 1790Q504 1823 520.5 1840.0Q537 1857 574 1857Q603 1857 613.0 1838.5Q623 1820 617 1783L489 1055H1350L1482 1805Q1486 1826 1500.0 1841.5Q1514 1857 1548 1857Q1584 1857 1594.5 1840.5Q1605 1824 1599 1791L1293 53Q1290 34 1277.0 17.0Q1264 0 1229 0Q1189 0 1180.0 19.0Q1171 38 1175 62L1330 948H470L314 62Q310 40 298.5 20.0Q287 0 246 0Z" transform="translate(626.58, 72) scale(0.036, -0.036)" /><path d="M267 -18Q199 -18 148.5 34.5Q98 87 78.5 184.5Q59 282 83 416Q116 597 198.0 728.0Q280 859 387.5 930.0Q495 1001 604 1001H925Q950 1001 955.0 978.5Q960 956 953 917L801 56Q799 46 787.5 23.0Q776 0 728 0Q690 0 683.5 18.0Q677 36 680 51L754 470Q687 332 603.0 221.5Q519 111 432.0 46.5Q345 -18 267 -18ZM291 89Q359 89 447.5 180.0Q536 271 630.0 426.5Q724 582 808 775L830 899H614Q532 899 447.5 840.0Q363 781 297.0 674.0Q231 567 204 422Q179 273 211.0 181.0Q243 89 291 89Z" transform="translate(684.216, 72) scale(0.036, -0.036)" /><path d="M141 0Q103 0 96.0 17.5Q89 35 92 49L248 934Q252 958 261.0 972.5Q270 987 286.5 994.0Q303 1001 329 1001Q358 1001 366.5 987.0Q375 973 369 939L333 738Q429 884 515.0 951.5Q601 1019 713 1019Q813 1019 875.0 967.5Q937 916 960.5 834.0Q984 752 968 661L859 49Q858 37 849.0 18.5Q840 0 793 0Q756 0 746.5 18.5Q737 37 740 55L848 666Q858 718 850.5 775.0Q843 832 809.0 872.5Q775 913 704 913Q615 913 520.0 828.5Q425 744 303 567L213 55Q211 43 199.5 21.5Q188 0 141 0Z" transform="translate(721.872, 72) scale(0.036, -0.036)" /><path d="M271 -12Q155 -12 101.5 99.5Q48 211 84 411Q117 590 191.5 722.5Q266 855 375.5 928.0Q485 1001 624 1001H836L981 1816Q985 1841 1002.5 1850.0Q1020 1859 1042 1857Q1070 1856 1086.0 1840.0Q1102 1824 1097 1795L789 50Q785 22 770.5 11.0Q756 0 735 0Q717 0 701.0 8.0Q685 16 676.5 31.0Q668 46 672 67L741 457Q636 238 515.0 113.0Q394 -12 271 -12ZM295 94Q359 94 425.0 153.0Q491 212 555.5 309.5Q620 407 681.0 525.0Q742 643 795 761L819 899H634Q522 899 435.0 838.0Q348 777 290.0 668.0Q232 559 206 415Q182 268 207.0 181.0Q232 94 295 94Z" transform="translate(761.0759999999999, 72) scale(0.036, -0.036)" /></g></svg>
